assets/img/icons/nazarov_logo_header.svg

<svg width="193" height="60" viewBox="0 0 193 60" fill="none" xmlns="http://www.w3.org/2000/svg">
<g clip-path="url(#clip0)">
<path fill-rule="evenodd" clip-rule="evenodd" d="M92.1573 15.4053V20.108H96.1782L88.7798 36.8107H85.4023V41.5134H96.7411V36.8107H93.7657L94.7307 34.7837H102.772L103.737 36.8107H100.762V41.5134H114.111V36.8107H111.457L101.566 15.4053H92.1573ZM98.8319 25.4593L100.842 30.162H96.8215L98.8319 25.4593Z" fill="#A89365"/>
<path fill-rule="evenodd" clip-rule="evenodd" d="M39.0022 15.4053V20.108H43.0231L35.7051 36.8107H32.3276V41.5134H43.6664V36.8107H40.691L41.656 34.7837H49.6976L50.6626 36.8107H47.6872V41.5134H61.1168V36.8107H58.4631L48.3306 15.4053H39.0022ZM45.6768 25.4593L47.6872 30.162H43.6664L45.6768 25.4593Z" fill="#A89365"/>
<path d="M0 15.4053V20.108H2.65375V36.8107H0V41.5134H12.7058V36.8107H10.0521V30.0809H19.3804V36.8107H16.7267V41.5134H29.4325V36.8107H26.7787V20.108H29.4325V15.4053H16.7267V20.108H19.3804V25.4593H10.0521V20.108H12.7058V15.4053H0Z" fill="#A89365"/>
<path fill-rule="evenodd" clip-rule="evenodd" d="M116.443 15.4053V20.108H120.464V30.162H116.443V34.8647H120.464V36.8918H116.443V41.5945H130.516V36.8918H127.139V34.8647H138.478V30.162H136.467C138.478 28.8647 139.764 26.5945 139.845 24.162C139.845 19.4593 135.18 15.4864 132.446 15.4864L116.443 15.4053ZM127.139 28.135V20.108C127.139 20.108 131.16 20.108 131.16 24.162C131.16 28.2161 127.139 28.135 127.139 28.135Z" fill="#A89365"/>
<path d="M62.564 15.4053L65.9415 22.7837H70.6056L69.2385 20.108H73.9831C73.9831 20.108 75.9935 20.108 75.9935 22.7837C75.9935 25.4593 73.9831 25.4593 73.9831 25.4593H67.3085L69.6406 30.162H73.9831C73.9831 30.162 75.9935 30.162 75.9935 33.4864C75.9935 36.8107 73.9831 36.8107 73.9831 36.8107H69.319L70.686 34.135H65.9415L62.564 41.5134H78.004C80.9794 41.3512 83.4723 39.162 84.0352 36.162C84.8394 33.0809 83.794 29.8377 81.3815 27.8107C81.3815 27.8107 84.759 26.108 83.3919 21.4864C82.6681 18.7296 80.6577 16.5404 78.004 15.4864H62.564V15.4053Z" fill="#A89365"/>
<path fill-rule="evenodd" clip-rule="evenodd" d="M172.252 20.1079V36.8107H168.875V41.5134H185.602C187.612 41.5134 193 38.8377 193 33.4863C193 28.135 190.025 27.4863 190.025 27.4863C191.392 25.7836 192.035 23.5944 191.713 21.4863C191.07 18.162 187.692 15.4863 185.682 15.4863H168.875V20.189H172.252V20.1079ZM179.651 25.4593V20.1079H181.018C181.018 20.1079 184.395 20.1079 184.395 22.7836C184.395 25.4593 181.018 25.4593 181.018 25.4593H179.651ZM179.651 36.8107V30.0809H181.018C182.868 30.0809 184.315 31.5404 184.315 33.4052C184.315 35.2701 182.868 36.7296 181.018 36.7296L179.651 36.8107Z" fill="#A89365"/>
<path fill-rule="evenodd" clip-rule="evenodd" d="M154.883 42.162C151.505 42.162 142.177 42.162 142.177 28.7837C142.177 15.4053 151.505 15.4053 154.883 15.4053C158.26 15.4053 167.588 15.4053 167.588 28.7837C167.588 42.162 158.18 42.162 154.883 42.162ZM160.19 28.7837C160.19 36.162 156.813 37.4593 154.802 37.4593C152.792 37.4593 150.138 36.0809 150.138 28.7837C150.138 21.4864 152.792 20.108 154.802 20.108C156.813 20.108 160.19 21.4053 160.19 28.7837Z" fill="#A89365"/>
<path d="M99.5557 11.3514H104.22L113.629 0H104.944L99.5557 11.3514Z" fill="#A89365"/>
<path d="M0.64341 51.7119V50.6578C1.20633 50.4146 1.76924 50.3335 2.33216 50.3335C3.37758 50.3335 4.26216 50.6578 4.82507 51.3065C5.38799 51.9551 5.70966 52.7659 5.70966 53.7389C5.70966 54.7119 5.38799 55.5227 4.74466 56.1713C4.10133 56.82 3.29716 57.1443 2.33216 57.1443C1.68883 57.1443 1.1259 57.0632 0.562988 56.82V55.7659C1.1259 56.0903 1.68883 56.2524 2.33216 56.2524C2.89508 56.2524 3.45799 56.0903 3.86008 55.6848C4.26216 55.2794 4.50341 54.874 4.58382 54.2254H1.20632V53.2524H4.58382C4.42299 52.6848 4.18174 52.2794 3.77965 51.9551C3.37757 51.6308 2.89508 51.4686 2.33216 51.4686C1.84966 51.2254 1.20633 51.3875 0.64341 51.7119Z" fill="#A89365"/>
<path d="M12.6256 50.4146V56.82H11.4998V51.4686H9.2481V54.3875C9.2481 55.1983 9.08727 55.847 8.7656 56.2524C8.36352 56.6578 7.88102 56.82 7.23768 56.82C7.15727 56.82 7.07685 56.82 6.91602 56.82V55.7659C6.99643 55.7659 7.07685 55.7659 7.15727 55.7659C7.47893 55.7659 7.8006 55.6037 7.96143 55.3605C8.12227 55.1173 8.20268 54.7929 8.20268 54.3064V50.4146H12.6256Z" fill="#A89365"/>
<path d="M19.702 54.7119L20.5866 55.1984C20.3453 55.6038 20.1041 55.9281 19.7824 56.2524C19.2195 56.7389 18.4957 57.0632 17.6916 57.0632C16.807 57.0632 16.0832 56.82 15.5203 56.2524C14.877 55.6849 14.6357 54.874 14.6357 53.7389C14.6357 52.7659 14.877 51.9551 15.4399 51.3065C16.0028 50.6578 16.7266 50.3335 17.6916 50.3335C18.737 50.3335 19.5412 50.7389 20.1041 51.4686C20.5062 52.1173 20.7474 52.847 20.667 53.9011H15.7616C15.7616 54.5497 16.0028 55.0362 16.3245 55.4416C16.7266 55.847 17.2091 56.0092 17.772 56.0092C18.2545 56.0092 18.737 55.847 19.0587 55.5227C19.2999 55.2794 19.5412 55.0362 19.702 54.7119ZM15.7616 52.9281H19.4607C19.3803 52.4416 19.1391 52.0362 18.8174 51.7119C18.4957 51.3875 18.0937 51.2254 17.6112 51.2254C17.1287 51.2254 16.7266 51.3875 16.4049 51.7119C16.0832 52.0362 15.842 52.4416 15.7616 52.9281Z" fill="#A89365"/>
<path d="M22.6776 50.4146H23.8034V53.0092L26.3768 50.4146H27.7438L25.0097 53.2524L28.0655 56.82H26.5376L24.0447 53.9821L23.723 54.3064V56.82H22.5972V50.4146H22.6776Z" fill="#A89365"/>
<path d="M33.5339 51.4686H31.5235V56.82H30.3976V51.4686H28.3872V50.4146H33.4535V51.4686H33.5339Z" fill="#A89365"/>
<path d="M36.1073 55.9281V60.3876H34.9814V50.4146H36.1073V51.3065C36.6702 50.5768 37.3939 50.2524 38.2785 50.2524C39.2435 50.2524 39.9673 50.5768 40.5302 51.2254C41.0931 51.8741 41.3344 52.6849 41.3344 53.5768C41.3344 54.4687 41.0931 55.2795 40.5302 55.9281C39.9673 56.5768 39.2435 56.9011 38.2785 56.9011C37.3939 56.9822 36.6702 56.6578 36.1073 55.9281ZM38.1981 56.0092C38.8414 56.0092 39.3239 55.766 39.726 55.3605C40.1281 54.8741 40.289 54.3065 40.289 53.6578C40.289 52.9281 40.0477 52.3605 39.6456 51.8741C39.2435 51.4687 38.761 51.2254 38.1981 51.2254C37.6352 51.2254 37.1527 51.4687 36.7506 51.8741C36.3485 52.2795 36.1073 52.847 36.1073 53.5768C36.1073 54.2254 36.2681 54.793 36.6702 55.2795C37.0723 55.766 37.5548 56.0092 38.1981 56.0092Z" fill="#A89365"/>
<path d="M48.7324 56.0903C48.0891 56.7389 47.2849 57.0633 46.3199 57.0633C45.3549 57.0633 44.5507 56.7389 43.9074 56.0903C43.2641 55.4416 42.9424 54.6308 42.9424 53.6578C42.9424 52.6849 43.2641 51.8741 43.9074 51.2254C44.5507 50.5768 45.3549 50.2524 46.3199 50.2524C47.2849 50.2524 48.0891 50.5768 48.7324 51.2254C49.3757 51.8741 49.6974 52.6849 49.6974 53.6578C49.6974 54.6308 49.3757 55.4416 48.7324 56.0903ZM47.9282 51.8741C47.5261 51.4687 46.9632 51.2254 46.3199 51.2254C45.6766 51.2254 45.1941 51.4687 44.7116 51.8741C44.3095 52.2795 44.0682 52.847 44.0682 53.6578C44.0682 54.4687 44.3095 54.9551 44.7116 55.3605C45.1136 55.766 45.6766 56.0092 46.3199 56.0092C46.9632 56.0092 47.4457 55.766 47.9282 55.3605C48.3303 54.9551 48.5716 54.3876 48.5716 53.6578C48.5716 52.9281 48.3303 52.2795 47.9282 51.8741Z" fill="#A89365"/>
<path d="M51.708 56.82V50.4146H52.8338V53.0092H55.8092V50.4146H56.9351V56.82H55.8092V54.0632H52.8338V56.82H51.708Z" fill="#A89365"/>
<path d="M59.2671 50.4147H60.3929V54.6309L64.7354 49.9282V56.8201H63.6096V52.5228L59.2671 57.2255V50.4147Z" fill="#A89365"/>
<path d="M67.0674 50.4146H68.1932V53.0092L70.7666 50.4146H72.1336L69.3995 53.2524L72.4553 56.82H71.0078L68.5149 53.9821L68.1932 54.3064V56.82H67.0674V50.4146Z" fill="#A89365"/>
<path d="M78.6475 51.3065V50.4146H79.7733V56.82H78.6475V55.9281C78.0846 56.6578 77.3608 56.9822 76.4762 56.9822C75.5917 56.9822 74.8679 56.6578 74.305 56.0903C73.7421 55.5227 73.4204 54.6308 73.4204 53.5768C73.4204 52.5227 73.7421 51.7119 74.305 51.1443C74.8679 50.5768 75.5917 50.2524 76.4762 50.2524C77.4412 50.2524 78.165 50.6578 78.6475 51.3065ZM76.6371 51.2254C76.0742 51.2254 75.5917 51.4687 75.1896 51.8741C74.7875 52.2795 74.5462 52.847 74.5462 53.5768C74.5462 54.3065 74.7071 54.8741 75.1092 55.2795C75.5112 55.6849 75.9937 55.9281 76.6371 55.9281C77.2804 55.9281 77.7629 55.6849 78.165 55.1984C78.5671 54.7119 78.7279 54.1443 78.7279 53.4957C78.7279 52.766 78.4867 52.1173 78.0846 51.7119C77.6825 51.4687 77.2 51.2254 76.6371 51.2254Z" fill="#A89365"/>
<path d="M86.0459 50.4147H87.1717V54.6309L91.5142 49.9282V56.8201H90.3884V52.5228L86.0459 57.2255V50.4147Z" fill="#A89365"/>
<path d="M102.612 51.3065V50.4146H103.738V56.82H102.612V55.9281C102.049 56.6578 101.325 56.9822 100.441 56.9822C99.556 56.9822 98.8323 56.6578 98.2693 56.0903C97.7064 55.5227 97.3848 54.6308 97.3848 53.5768C97.3848 52.5227 97.7064 51.7119 98.2693 51.1443C98.8323 50.5768 99.6364 50.2524 100.441 50.2524C101.325 50.2524 102.049 50.6578 102.612 51.3065ZM100.521 51.2254C99.9581 51.2254 99.4756 51.4687 99.0735 51.8741C98.6714 52.2795 98.4302 52.847 98.4302 53.5768C98.4302 54.3065 98.591 54.8741 98.9931 55.2795C99.3952 55.6849 99.8777 55.9281 100.521 55.9281C101.164 55.9281 101.647 55.6849 102.049 55.1984C102.451 54.7119 102.612 54.1443 102.612 53.4957C102.612 52.766 102.371 52.1173 101.969 51.7119C101.566 51.4687 101.084 51.2254 100.521 51.2254Z" fill="#A89365"/>
<path d="M106.07 50.4146H108.482C109.045 50.4146 109.528 50.5767 109.849 50.82C110.251 51.1443 110.412 51.5497 110.412 52.0362C110.412 52.6037 110.171 53.0091 109.689 53.3335C110.01 53.4146 110.251 53.5767 110.493 53.7389C110.814 54.0632 110.975 54.4686 110.975 54.9551C110.975 55.6037 110.734 56.0902 110.332 56.4146C109.93 56.7389 109.447 56.82 108.804 56.82H106.07V50.4146ZM107.196 53.0092H108.321C108.643 53.0092 108.884 52.9281 109.045 52.847C109.286 52.6848 109.367 52.4416 109.367 52.1983C109.367 51.9551 109.286 51.7119 109.045 51.5497C108.884 51.4686 108.563 51.3875 108.161 51.3875H107.196V53.0092ZM107.196 55.847H108.563C109.045 55.847 109.367 55.7659 109.528 55.6037C109.769 55.4416 109.93 55.1983 109.93 54.874C109.93 54.5497 109.849 54.3064 109.608 54.1443C109.447 53.9821 109.045 53.901 108.643 53.901H107.276V55.847H107.196Z" fill="#A89365"/>
<path d="M117.087 51.4686H115.076V56.82H113.95V51.4686H111.94V50.4146H117.006V51.4686H117.087Z" fill="#A89365"/>
<path d="M123.761 56.0903C123.118 56.7389 122.314 57.0633 121.349 57.0633C120.384 57.0633 119.58 56.7389 118.936 56.0903C118.293 55.4416 117.971 54.6308 117.971 53.6578C117.971 52.6849 118.293 51.8741 118.936 51.2254C119.58 50.5768 120.384 50.2524 121.349 50.2524C122.314 50.2524 123.118 50.5768 123.761 51.2254C124.405 51.8741 124.726 52.6849 124.726 53.6578C124.726 54.6308 124.405 55.4416 123.761 56.0903ZM122.957 51.8741C122.555 51.4687 121.992 51.2254 121.349 51.2254C120.705 51.2254 120.223 51.4687 119.74 51.8741C119.338 52.2795 119.097 52.847 119.097 53.6578C119.097 54.4687 119.338 54.9551 119.74 55.3605C120.142 55.766 120.705 56.0092 121.349 56.0092C121.992 56.0092 122.475 55.766 122.957 55.3605C123.359 54.9551 123.6 54.3876 123.6 53.6578C123.6 52.9281 123.359 52.2795 122.957 51.8741Z" fill="#A89365"/>
<path d="M126.013 56.8201L127.541 49.9282L130.195 55.1174L132.768 49.9282L134.296 56.8201H133.17L132.366 52.8471L130.195 57.2255L128.024 52.8471L127.219 56.8201H126.013Z" fill="#A89365"/>
<path d="M140.729 51.3065V50.4146H141.855V56.82H140.729V55.9281C140.166 56.6578 139.442 56.9822 138.558 56.9822C137.673 56.9822 136.949 56.6578 136.387 56.0903C135.824 55.5227 135.502 54.6308 135.502 53.5768C135.502 52.5227 135.824 51.7119 136.387 51.1443C136.949 50.5768 137.754 50.2524 138.558 50.2524C139.523 50.2524 140.247 50.6578 140.729 51.3065ZM138.719 51.2254C138.156 51.2254 137.673 51.4687 137.271 51.8741C136.869 52.2795 136.628 52.847 136.628 53.5768C136.628 54.3065 136.789 54.8741 137.191 55.2795C137.593 55.6849 138.075 55.9281 138.719 55.9281C139.362 55.9281 139.844 55.6849 140.247 55.1984C140.649 54.7119 140.809 54.1443 140.809 53.4957C140.809 52.766 140.568 52.1173 140.166 51.7119C139.764 51.4687 139.282 51.2254 138.719 51.2254Z" fill="#A89365"/>
<path d="M148.369 51.4686H146.358V56.82H145.233V51.4686H143.222V50.4146H148.288V51.4686H148.369Z" fill="#A89365"/>
<path d="M149.816 50.4147H150.942V54.6309L155.285 49.9282V56.8201H154.159V52.5228L149.816 57.2255V50.4147Z" fill="#A89365"/>
<path d="M158.501 52.0362L157.778 51.3876C158.019 51.0633 158.26 50.7389 158.582 50.5768C158.984 50.3335 159.466 50.2524 159.949 50.2524C160.592 50.2524 161.075 50.4146 161.477 50.7389C161.879 51.0633 162.04 51.4687 162.04 51.9551C162.04 52.5227 161.799 53.0092 161.316 53.3335C161.638 53.4146 161.879 53.5768 162.04 53.7389C162.361 54.0633 162.522 54.4687 162.522 54.8741C162.522 55.5227 162.281 56.0903 161.718 56.4957C161.236 56.82 160.673 56.9822 159.949 56.9822C159.306 56.9822 158.743 56.82 158.26 56.4146C157.939 56.1714 157.617 55.766 157.456 55.3605L158.421 54.9551C158.501 55.2795 158.743 55.5227 158.984 55.6849C159.306 55.9281 159.627 56.0092 160.029 56.0092C160.512 56.0092 160.834 55.9281 161.075 55.766C161.396 55.6038 161.557 55.2795 161.557 54.8741C161.557 54.5497 161.396 54.3065 161.155 54.1443C160.914 53.9822 160.592 53.9011 160.11 53.9011H159.466V52.847H160.029C160.431 52.847 160.673 52.766 160.834 52.6849C161.075 52.5227 161.155 52.3605 161.155 52.1173C161.155 51.793 161.075 51.6308 160.914 51.4687C160.753 51.3065 160.431 51.2254 160.11 51.2254C159.788 51.2254 159.466 51.3065 159.225 51.4687C158.823 51.6308 158.662 51.8741 158.501 52.0362Z" fill="#A89365"/>
<path d="M169.277 51.3065V50.4146H170.403V56.82H169.277V55.9281C168.714 56.6578 167.991 56.9822 167.106 56.9822C166.222 56.9822 165.498 56.6578 164.935 56.0903C164.372 55.5227 164.05 54.7119 164.05 53.5768C164.05 52.5227 164.372 51.7119 164.935 51.1443C165.498 50.5768 166.222 50.2524 167.106 50.2524C168.071 50.2524 168.795 50.6578 169.277 51.3065ZM167.267 51.2254C166.704 51.2254 166.222 51.4687 165.819 51.8741C165.417 52.2795 165.176 52.847 165.176 53.5768C165.176 54.3065 165.337 54.8741 165.739 55.2795C166.141 55.6849 166.624 55.9281 167.267 55.9281C167.91 55.9281 168.393 55.6849 168.795 55.1984C169.197 54.7119 169.358 54.1443 169.358 53.4957C169.358 52.766 169.117 52.1173 168.714 51.7119C168.312 51.4687 167.83 51.2254 167.267 51.2254Z" fill="#A89365"/>
<path d="M172.735 56.82V50.4146H173.861V55.7659H176.675V50.4146H177.801V55.7659H178.847V58.4416H177.801V56.82H172.735Z" fill="#A89365"/>
<path d="M180.294 50.4147H181.42V54.6309L185.763 49.9282V56.8201H184.637V52.5228L180.294 57.2255V50.4147Z" fill="#A89365"/>
<path d="M187.371 56.82L189.382 54.2254C189.301 54.2254 189.221 54.2254 189.14 54.2254C189.06 54.2254 188.899 54.1443 188.658 54.0632C188.417 53.9821 188.256 53.901 188.175 53.7389C187.854 53.4146 187.693 53.0091 187.693 52.4416C187.693 51.874 187.854 51.3875 188.256 50.9821C188.658 50.6578 189.221 50.4146 190.105 50.4146H192.357V56.82H191.231V54.2254H190.588L188.819 56.82H187.371ZM191.231 53.3335V51.3875H190.186C189.703 51.3875 189.381 51.4686 189.221 51.5497C188.979 51.7119 188.819 51.9551 188.819 52.3605C188.819 52.7659 188.979 52.9281 189.221 53.1713C189.381 53.3335 189.703 53.3335 190.186 53.3335H191.231Z" fill="#A89365"/>
</g>
<defs>
<clipPath id="clip0">
<rect width="193" height="60" fill="white"/>
</clipPath>
</defs>
</svg>

<svg width="193" height="60" fill="none" xmlns="http://www.w3.org/2000/svg"><g clip-path="url(#clip0)" fill="#A89365"><path fill-rule="evenodd" clip-rule="evenodd" d="M92.157 15.405v4.703h4.021L88.78 36.811h-3.378v4.702h11.34v-4.702h-2.976l.965-2.027h8.041l.965 2.027h-2.975v4.702h13.349v-4.702h-2.654l-9.891-21.406h-9.409zm6.675 10.054l2.01 4.703h-4.02l2.01-4.703zm-59.83-10.054v4.703h4.021l-7.318 16.703h-3.377v4.702h11.338v-4.702h-2.975l.965-2.027h8.042l.965 2.027h-2.976v4.702h13.43v-4.702h-2.654L48.331 15.405h-9.329zm6.675 10.054l2.01 4.703h-4.02l2.01-4.703z"/><path d="M0 15.405v4.703h2.654v16.703H0v4.702h12.706v-4.702h-2.654v-6.73h9.328v6.73h-2.653v4.702h12.706v-4.702h-2.654V20.108h2.654v-4.703H16.727v4.703h2.653v5.351h-9.328v-5.351h2.654v-4.703H0z"/><path fill-rule="evenodd" clip-rule="evenodd" d="M116.443 15.405v4.703h4.021v10.054h-4.021v4.703h4.021v2.027h-4.021v4.702h14.073v-4.702h-3.377v-2.027h11.339v-4.703h-2.011c2.011-1.297 3.297-3.567 3.378-6 0-4.703-4.665-8.676-7.399-8.676l-16.003-.08zm10.696 12.73v-8.027s4.021 0 4.021 4.054-4.021 3.973-4.021 3.973z"/><path d="M62.564 15.405l3.378 7.379h4.664l-1.367-2.676h4.744s2.01 0 2.01 2.676c0 2.675-2.01 2.675-2.01 2.675h-6.675l2.333 4.703h4.342s2.01 0 2.01 3.324c0 3.325-2.01 3.325-2.01 3.325H69.32l1.367-2.676h-4.745l-3.377 7.378h15.44c2.975-.162 5.468-2.351 6.031-5.351a8.196 8.196 0 00-2.653-8.351s3.377-1.703 2.01-6.325c-.724-2.756-2.734-4.946-5.388-6h-15.44v-.08z"/><path fill-rule="evenodd" clip-rule="evenodd" d="M172.252 20.108V36.81h-3.377v4.702h16.727c2.01 0 7.398-2.675 7.398-8.027 0-5.351-2.975-6-2.975-6 1.367-1.702 2.01-3.892 1.688-6-.643-3.324-4.021-6-6.031-6h-16.807v4.703h3.377v-.081zm7.399 5.351v-5.351h1.367s3.377 0 3.377 2.676c0 2.675-3.377 2.675-3.377 2.675h-1.367zm0 11.352v-6.73h1.367c1.85 0 3.297 1.46 3.297 3.324 0 1.865-1.447 3.325-3.297 3.325l-1.367.08zm-24.768 5.351c-3.378 0-12.706 0-12.706-13.378 0-13.379 9.328-13.379 12.706-13.379 3.377 0 12.705 0 12.705 13.379 0 13.378-9.408 13.378-12.705 13.378zm5.307-13.378c0 7.378-3.377 8.675-5.388 8.675-2.01 0-4.664-1.378-4.664-8.675 0-7.298 2.654-8.676 4.664-8.676 2.011 0 5.388 1.297 5.388 8.676z"/><path d="M99.556 11.351h4.664L113.629 0h-8.685l-5.388 11.351zM.643 51.712v-1.054c.563-.243 1.126-.325 1.69-.325 1.045 0 1.93.325 2.492.974.563.648.885 1.459.885 2.432 0 .973-.322 1.784-.965 2.432-.644.649-1.448.973-2.413.973-.643 0-1.206-.08-1.769-.324v-1.054a3.421 3.421 0 001.77.486c.562 0 1.125-.162 1.527-.567.402-.406.643-.811.724-1.46H1.206v-.973h3.378c-.161-.567-.402-.973-.804-1.297-.402-.324-.885-.486-1.448-.486-.482-.244-1.126-.081-1.689.243zm11.983-1.297v6.405H11.5v-5.351H9.248v2.919c0 .81-.16 1.459-.482 1.864-.402.406-.885.568-1.528.568h-.322v-1.054h.241c.322 0 .644-.162.804-.405.161-.244.242-.568.242-1.055v-3.891h4.423zm7.076 4.297l.885.486a5.2 5.2 0 01-.805 1.054c-.563.487-1.286.811-2.09.811-.885 0-1.609-.243-2.172-.81-.643-.568-.884-1.379-.884-2.514 0-.973.241-1.784.804-2.432.563-.65 1.287-.974 2.252-.974 1.045 0 1.85.406 2.412 1.136.402.648.643 1.378.563 2.432h-4.905c0 .649.24 1.135.563 1.54.402.406.884.568 1.447.568.483 0 .965-.162 1.287-.486.24-.244.482-.487.643-.811zm-3.94-1.784h3.699a2.236 2.236 0 00-.644-1.216c-.321-.325-.723-.487-1.206-.487-.482 0-.884.163-1.206.487-.322.324-.563.73-.643 1.216zm6.916-2.513h1.125v2.594l2.574-2.594h1.367l-2.734 2.837 3.055 3.568h-1.527l-2.493-2.838-.322.324v2.514h-1.126v-6.405h.08zm10.856 1.054h-2.01v5.351h-1.126v-5.351h-2.01v-1.054h5.065v1.054h.08zm2.573 4.459v4.46h-1.126v-9.973h1.126v.892c.563-.73 1.287-1.055 2.172-1.055.964 0 1.688.325 2.251.973.563.65.804 1.46.804 2.352 0 .892-.24 1.703-.804 2.351-.563.649-1.287.973-2.252.973-.884.081-1.608-.243-2.17-.973zm2.091.081c.643 0 1.126-.243 1.528-.648.402-.487.563-1.054.563-1.703 0-.73-.241-1.297-.643-1.784-.403-.405-.885-.649-1.448-.649s-1.045.244-1.447.65c-.402.404-.644.972-.644 1.702 0 .648.161 1.216.563 1.703.402.486.885.73 1.528.73zm10.534.081c-.643.649-1.447.973-2.412.973-.965 0-1.77-.324-2.413-.973-.643-.648-.965-1.46-.965-2.432 0-.973.322-1.784.965-2.433.644-.648 1.448-.973 2.413-.973.965 0 1.77.325 2.412.973.644.65.965 1.46.965 2.433 0 .973-.321 1.784-.965 2.432zm-.804-4.216a2.236 2.236 0 00-1.608-.649c-.643 0-1.126.244-1.608.65-.403.404-.644.972-.644 1.783 0 .81.242 1.297.644 1.703.402.405.965.648 1.608.648.643 0 1.126-.243 1.608-.648.402-.406.644-.973.644-1.703 0-.73-.242-1.379-.644-1.784zm3.78 4.946v-6.405h1.126v2.594h2.975v-2.594h1.126v6.405H55.81v-2.757h-2.975v2.757h-1.126zm7.559-6.405h1.126v4.216l4.342-4.703v6.892H63.61v-4.297l-4.343 4.702v-6.81zm7.8 0h1.126v2.594l2.574-2.594h1.367L69.4 53.252l3.055 3.568h-1.447l-2.493-2.838-.322.324v2.514h-1.126v-6.405zm11.58.891v-.891h1.126v6.405h-1.126v-.892c-.562.73-1.286 1.054-2.17 1.054-.885 0-1.61-.324-2.172-.892-.563-.567-.885-1.46-.885-2.513 0-1.054.322-1.865.885-2.433.563-.567 1.287-.892 2.171-.892.965 0 1.689.406 2.171 1.054zm-2.01-.08c-.563 0-1.045.243-1.447.648-.403.405-.644.973-.644 1.703 0 .73.161 1.297.563 1.703.402.405.885.648 1.528.648s1.126-.243 1.528-.73c.402-.486.563-1.054.563-1.702 0-.73-.241-1.379-.643-1.784-.402-.243-.885-.487-1.448-.487zm9.409-.811h1.126v4.216l4.342-4.703v6.892h-1.126v-4.297l-4.342 4.702v-6.81zm16.566.891v-.891h1.126v6.405h-1.126v-.892c-.563.73-1.287 1.054-2.171 1.054-.885 0-1.609-.324-2.172-.892-.563-.567-.884-1.46-.884-2.513 0-1.054.321-1.865.884-2.433a3.095 3.095 0 012.172-.892c.884 0 1.608.406 2.171 1.054zm-2.091-.08c-.563 0-1.045.243-1.448.648-.402.405-.643.973-.643 1.703 0 .73.161 1.297.563 1.703.402.405.885.648 1.528.648s1.126-.243 1.528-.73c.402-.486.563-1.054.563-1.702 0-.73-.241-1.379-.643-1.784-.403-.243-.885-.487-1.448-.487zm5.549-.811h2.412c.563 0 1.046.162 1.367.405.402.324.563.73.563 1.216 0 .568-.241.973-.723 1.297.321.082.562.244.804.406.321.324.482.73.482 1.216 0 .649-.241 1.135-.643 1.46-.402.324-.885.405-1.528.405h-2.734v-6.405zm1.126 2.594h1.125c.322 0 .563-.08.724-.162.241-.162.322-.405.322-.649 0-.243-.081-.486-.322-.648-.161-.081-.482-.162-.884-.162h-.965v1.621zm0 2.838h1.367c.482 0 .804-.081.965-.243a.853.853 0 00.402-.73c0-.324-.081-.568-.322-.73-.161-.162-.563-.243-.965-.243h-1.367v1.946h-.08zm9.891-4.378h-2.011v5.351h-1.126v-5.351h-2.01v-1.054h5.066v1.054h.081zm6.674 4.621c-.643.649-1.447.973-2.412.973-.965 0-1.769-.324-2.413-.973-.643-.648-.965-1.46-.965-2.432 0-.973.322-1.784.965-2.433.644-.648 1.448-.973 2.413-.973.965 0 1.769.325 2.412.973.644.65.965 1.46.965 2.433 0 .973-.321 1.784-.965 2.432zm-.804-4.216a2.235 2.235 0 00-1.608-.649c-.644 0-1.126.244-1.609.65-.402.404-.643.972-.643 1.783 0 .81.241 1.297.643 1.703.402.405.965.648 1.609.648.643 0 1.126-.243 1.608-.648.402-.406.643-.973.643-1.703 0-.73-.241-1.379-.643-1.784zm3.056 4.946l1.528-6.892 2.654 5.19 2.573-5.19 1.528 6.892h-1.126l-.804-3.973-2.171 4.378-2.171-4.378-.805 3.973h-1.206zm14.716-5.514v-.891h1.126v6.405h-1.126v-.892c-.563.73-1.287 1.054-2.171 1.054-.885 0-1.609-.324-2.171-.892-.563-.567-.885-1.46-.885-2.513 0-1.054.322-1.865.885-2.433a3.092 3.092 0 012.171-.892c.965 0 1.689.406 2.171 1.054zm-2.01-.08c-.563 0-1.046.243-1.448.648-.402.405-.643.973-.643 1.703 0 .73.161 1.297.563 1.703.402.405.884.648 1.528.648.643 0 1.125-.243 1.528-.73.402-.486.562-1.054.562-1.702 0-.73-.241-1.379-.643-1.784-.402-.243-.884-.487-1.447-.487zm9.65.243h-2.011v5.351h-1.125v-5.351h-2.011v-1.054h5.066v1.054h.081zm1.447-1.054h1.126v4.216l4.343-4.703v6.892h-1.126v-4.297l-4.343 4.702v-6.81zm8.685 1.621l-.723-.648c.241-.325.482-.65.804-.811.402-.243.884-.325 1.367-.325.643 0 1.126.163 1.528.487.402.324.563.73.563 1.216 0 .568-.241 1.054-.724 1.379.322.08.563.243.724.405.321.324.482.73.482 1.135 0 .649-.241 1.216-.804 1.622-.482.324-1.045.486-1.769.486-.643 0-1.206-.162-1.689-.567a2.638 2.638 0 01-.804-1.054l.965-.406c.08.325.322.568.563.73.322.243.643.324 1.045.324.483 0 .805-.08 1.046-.243.321-.162.482-.486.482-.892a.854.854 0 00-.402-.73c-.241-.162-.563-.243-1.045-.243h-.644v-1.054h.563c.402 0 .644-.081.805-.162.241-.162.321-.325.321-.568 0-.324-.08-.486-.241-.648-.161-.163-.483-.244-.804-.244-.322 0-.644.081-.885.244-.402.162-.563.405-.724.567zm10.776-.73v-.891h1.126v6.405h-1.126v-.892c-.563.73-1.286 1.054-2.171 1.054-.884 0-1.608-.324-2.171-.892-.563-.567-.885-1.378-.885-2.513 0-1.054.322-1.865.885-2.433.563-.567 1.287-.892 2.171-.892.965 0 1.689.406 2.171 1.054zm-2.01-.08c-.563 0-1.045.243-1.448.648-.402.405-.643.973-.643 1.703 0 .73.161 1.297.563 1.703.402.405.885.648 1.528.648s1.126-.243 1.528-.73c.402-.486.563-1.054.563-1.702 0-.73-.241-1.379-.644-1.784-.402-.243-.884-.487-1.447-.487zm5.468 5.594v-6.405h1.126v5.35h2.814v-5.35h1.126v5.35h1.046v2.677h-1.046V56.82h-5.066zm7.559-6.405h1.126v4.216l4.343-4.703v6.892h-1.126v-4.297l-4.343 4.702v-6.81zm7.077 6.405l2.011-2.595h-.242c-.08 0-.241-.08-.482-.162-.241-.08-.402-.162-.483-.324-.321-.324-.482-.73-.482-1.297 0-.568.161-1.054.563-1.46.402-.324.965-.567 1.849-.567h2.252v6.405h-1.126v-2.595h-.643l-1.769 2.595h-1.448zm3.86-3.486v-1.947h-1.045c-.483 0-.805.082-.965.163-.242.162-.402.405-.402.81 0 .406.16.568.402.811.16.163.482.163.965.163h1.045z"/></g><defs><clipPath id="clip0"><path fill="#fff" d="M0 0h193v60H0z"/></clipPath></defs></svg>
